!!!COM:	de Orto, Marbrianus
!!!CDT:	~1460///-1529//
!!!OTL:	Venus tu m'a pris
!!!AGN:	Song; Chanson
!!!SCT:	Ort3009
!!!SCA:	Ort3009
!!!voices:	3
**kern	**kern	**kern
*staff3	*staff2	*staff1
*Ivox	*Ivox	*Ivox
*I"Contra	*I"Tenor	*I"Superius
*I'C	*I'T	*I'S
*clefF4	*clefGv2	*clefG2
*k[b-e-]	*k[b-e-]	*k[b-e-]
*M2/1	*M2/1	*M2/1
*met(C|)	*met(C|)	*met(C|)
=1-	=1-	=1-
1.C	0c	0r
2D\	.	.
=2	=2	=2
0E-	1B-	0r
.	[1c	.
=3	=3	=3
0F	2c\]	0r
.	2B-\	.
.	1A	.
=4	=4	=4
1E-	1G	0r
1D	2A/	.
.	[2B-\	.
=5	=5	=5
1G	4B-\]	0r
.	4c\	.
.	1d	.
2F\	.	.
[2G\	[2e-\	.
=6	=6	=6
2G\]	4e-\]	0r
.	4d\	.
4F\	1c	.
4E-\	.	.
1D	.	.
.	2Bni\	.
=7	=7	=7
1C	0c	0g
1r	.	.
=8	=8	=8
1D	1r	1f
2C/	1c	[1g
[2E-\	.	.
=9	=9	=9
2E-\]	1B-	2g/]
2D\	.	2f/
1C	1c	1e-
=10	=10	=10
2r	2G/	2.d/
1BB-	1d	.
.	.	4e-/
.	.	2f/
[2E-\	2c\	[2g/
=11	=11	=11
2E-\]	2B-\	2g/]
2C/	1c	4f/
.	.	4e-/
1G	.	1d
.	2B-\	.
=12	=12	=12
[0C	2.e-\	1r
.	4f\	.
.	1g	[1e-
=13	=13	=13
0C]	1c	2e-/]
.	.	2f/
.	2r	1g
.	[2e-\	.
=14	=14	=14
1r	4e-\]	1c
.	4f\	.
.	1g	.
1c	.	2r
.	4f\	2g/
.	4e-\	.
=15	=15	=15
1A	1f	2a/
.	.	1cc
1G	1g	.
.	.	2b-\
=16	=16	=16
1F	1c	1cc
1r	1B-	1dd
=17	=17	=17
1c	1e-	1g
[1B-	1f	[1dd
=18	=18	=18
2B-\]	[0g	2dd\]
2G\	.	4cc\
.	.	4b-\
[1c	.	[1ee-
=19	=19	=19
2c\]	1g]	2ee-\]
2G\	.	2dd\
[1B-	[1f	[1dd
=20	=20	=20
1B-]	1f]	2dd\]
.	.	2cc\
1c	1e-	[1cc
=21	=21	=21
0G	0d	2cc\]
.	.	4bni\
.	.	4a/
.	.	1bni
=22	=22	=22
1.A-	1r	0cc
.	1c	.
2B-\	.	.
=23	=23	=23
0c	1e-	1r
.	1e-	1g
=24	=24	=24
1G	1d	1b-
1E-	1e-	1b-
=25	=25	=25
1F	2c\	1a
.	1d	.
2BB-/	.	1b-
[2E-\	[2G/	.
=26	=26	=26
1E-]	4G/]	1g
.	4A/	.
.	4B-\	.
.	4c\	.
2D\	2d\	2f/
[2C/	[2e-\	[2g/
=27	=27	=27
1C]	2e-\]	2g/]
.	4d\	4f/
.	4c\	4e-/
2G\	2B-\	2d/
2A-i\	[2c\	2c/
=28	=28	=28
1G	4c\]	2d/
.	4Bni\	.
.	4Bni\	2.g/
.	4A/	.
1C	1c	.
.	.	4f/
.	.	2e-/
=29	=29	=29
1G	2B-\	2d/
.	2G/	1e-
1A-i	1c	.
.	.	4d/
.	.	4c/
=30	=30	=30
00G;	00d;	00B-;
=31	=31	=31
1A-	1c	0r
2G\	2B-\	.
[2c\	[2A/	.
=32	=32	=32
2c\]	4A/]	0r
.	4G/	.
2B-\	1G	.
2.A\	.	.
.	2F#i/	.
4G\	.	.
=33	=33	=33
2.G\	2G/	1d
.	2B-\	.
4F\	.	.
2E-\	2c\	2e-/
[2D\	[2d\	[2f/
=34	=34	=34
2D\]	2d\]	4f/]
.	.	4d/
1d	4c\	1g
.	4B-\	.
.	1A	.
2c\	.	2f#i/
=35	=35	=35
2B-\	2G/	2g/
2G\	1g	2.b-\
2r	.	.
.	.	4a/
2C/	4f\	[2cc\
.	4e-\	.
=36	=36	=36
1G	1d	2cc\]
.	.	2bni\
1C	2.c\	1cc
.	4d\	.
=37	=37	=37
1G	4e-\	1r
.	4d\	.
.	1e-	.
1A-	.	1cc
.	4d\	.
.	4c\	.
=38	=38	=38
1G	1B-	1dd
1B-	2r	1dd
.	2B-\	.
=39	=39	=39
0A-i	1c	1ee-
.	1c	1ee-
=40	=40	=40
0B-	0G	1.dd
.	.	2b-\
=41	=41	=41
1F	1r	0cc
1F	1A	.
=42	=42	=42
1E-	2.B-\	2.g/
.	4c\	4a/
2r	4d\	4b-\
.	4e-\	4cc\
[2G\	[2d\	[2b-\
=43	=43	=43
1G]	2d\]	2b-\]
.	4c\	4a/
.	4B-\	4g/
1D	1A	2g/
.	.	2f#i/
=44	=44	=44
1d	1G	2g/
.	.	4f/
.	.	4e-/
2B-\	1r	2d/
[2e-\	.	[2c/
=45	=45	=45
4e-\]	1r	2c/]
4d\	.	.
1c	.	2e-/
.	1G	1d
2Bni\	.	.
=46	=46	=46
1c	1A	1c
1r	1B-	1g
=47	=47	=47
1F	1c	1a
2E-\	1G	1b-
2G\	.	.
=48	=48	=48
1F	2.A/	1cc
.	4B-\	.
1E-	4c\	2.g/
.	4d\	.
.	[2e-\	.
.	.	4a/
=49	=49	=49
2r	2e-\]	4b-\
.	.	4cc\
2BB-/	2f\	2dd\
2E-\	2g\	2ee-\
[2D\	[2a-i\	[2ff\
=50	=50	=50
2D\]	4a-\]	4ff\]
.	4g\	4ee-\
2F\	4f\	4dd\
.	4e-\	4cc\
2E-\	2g\	2ee-\
[2B-\	[2f\	[2dd\
=51	=51	=51
2B-\]	2f\]	2dd\]
2c\	2e-\	1cc
1G	1d	.
.	.	2bni\
=52	=52	=52
0Cl	0cl	0ccl
==	==	==
*-	*-	*-
!!!RDF**kern: l=long note in original notation
!!!RDF**kern: i=editorial accidental
!!!ENC:	Jesse Rodin 8/6/2013
!!!END:	2013/08/06/
!!!EED:	Jesse Rodin
!!!EEV:	2013/08/06/
!!!ONB:	Translated from MusicXML and edited on 2013/08/06/ by Craig Sapp
!!muse2ps: C^@{COM}^i2I150v85,85,150Q16
